img/map-marker.svg

<svg width="22" height="28" viewBox="0 0 22 28" fill="none" xmlns="http://www.w3.org/2000/svg">
<g filter="url(#filter0_dd)">
<path d="M11 0C7.13 0 4 3.13 4 7C4 11.17 8.42 16.92 10.24 19.11C10.64 19.59 11.37 19.59 11.77 19.11C13.58 16.92 18 11.17 18 7C18 3.13 14.87 0 11 0ZM11 9.5C10.337 9.5 9.70107 9.23661 9.23223 8.76777C8.76339 8.29893 8.5 7.66304 8.5 7C8.5 6.33696 8.76339 5.70107 9.23223 5.23223C9.70107 4.76339 10.337 4.5 11 4.5C11.663 4.5 12.2989 4.76339 12.7678 5.23223C13.2366 5.70107 13.5 6.33696 13.5 7C13.5 7.66304 13.2366 8.29893 12.7678 8.76777C12.2989 9.23661 11.663 9.5 11 9.5V9.5Z" fill="#BDBDBD"/>
<path d="M4.5 7C4.5 3.40614 7.40614 0.5 11 0.5C14.5939 0.5 17.5 3.40614 17.5 7C17.5 8.94021 16.4591 11.3197 15.1343 13.5414C13.8221 15.7419 12.2832 17.7042 11.3855 18.7904C11.1853 19.03 10.8242 19.0299 10.6242 18.7901C9.72217 17.7046 8.18047 15.7421 6.86684 13.5412C5.54084 11.3196 4.5 8.94017 4.5 7ZM8.87868 9.12132C9.44129 9.68393 10.2044 10 11 10C11.7956 10 12.5587 9.68393 13.1213 9.12132C13.6839 8.55871 14 7.79565 14 7C14 6.20435 13.6839 5.44129 13.1213 4.87868C12.5587 4.31607 11.7956 4 11 4C10.2044 4 9.44129 4.31607 8.87868 4.87868C8.31607 5.44129 8 6.20435 8 7C8 7.79565 8.31607 8.55871 8.87868 9.12132Z" stroke="black"/>
<path d="M4.5 7C4.5 3.40614 7.40614 0.5 11 0.5C14.5939 0.5 17.5 3.40614 17.5 7C17.5 8.94021 16.4591 11.3197 15.1343 13.5414C13.8221 15.7419 12.2832 17.7042 11.3855 18.7904C11.1853 19.03 10.8242 19.0299 10.6242 18.7901C9.72217 17.7046 8.18047 15.7421 6.86684 13.5412C5.54084 11.3196 4.5 8.94017 4.5 7ZM8.87868 9.12132C9.44129 9.68393 10.2044 10 11 10C11.7956 10 12.5587 9.68393 13.1213 9.12132C13.6839 8.55871 14 7.79565 14 7C14 6.20435 13.6839 5.44129 13.1213 4.87868C12.5587 4.31607 11.7956 4 11 4C10.2044 4 9.44129 4.31607 8.87868 4.87868C8.31607 5.44129 8 6.20435 8 7C8 7.79565 8.31607 8.55871 8.87868 9.12132Z" stroke="url(#paint0_linear)"/>
</g>
<defs>
<filter id="filter0_dd" x="0" y="0" width="22" height="27.47" filterUnits="userSpaceOnUse" color-interpolation-filters="sRGB">
<feFlood flood-opacity="0" result="BackgroundImageFix"/>
<feColorMatrix in="SourceAlpha" type="matrix" values="0 0 0 0 0 0 0 0 0 0 0 0 0 0 0 0 0 0 127 0"/>
<feOffset dy="4"/>
<feGaussianBlur stdDeviation="2"/>
<feColorMatrix type="matrix" values="0 0 0 0 0 0 0 0 0 0 0 0 0 0 0 0 0 0 0.25 0"/>
<feBlend mode="normal" in2="BackgroundImageFix" result="effect1_dropShadow"/>
<feColorMatrix in="SourceAlpha" type="matrix" values="0 0 0 0 0 0 0 0 0 0 0 0 0 0 0 0 0 0 127 0"/>
<feOffset dy="4"/>
<feGaussianBlur stdDeviation="2"/>
<feColorMatrix type="matrix" values="0 0 0 0 0 0 0 0 0 0 0 0 0 0 0 0 0 0 0.25 0"/>
<feBlend mode="normal" in2="effect1_dropShadow" result="effect2_dropShadow"/>
<feBlend mode="normal" in="SourceGraphic" in2="effect2_dropShadow" result="shape"/>
</filter>
<linearGradient id="paint0_linear" x1="11" y1="0" x2="11" y2="19.47" gradientUnits="userSpaceOnUse">
<stop stop-color="white"/>
<stop offset="1" stop-color="white" stop-opacity="0"/>
</linearGradient>
</defs>
</svg>

<svg width="22" height="28" fill="none" xmlns="http://www.w3.org/2000/svg"><g filter="url(#prefix__filter0_dd)"><path d="M11 0C7.13 0 4 3.13 4 7c0 4.17 4.42 9.92 6.24 12.11.4.48 1.13.48 1.53 0C13.58 16.92 18 11.17 18 7c0-3.87-3.13-7-7-7zm0 9.5a2.5 2.5 0 110-5 2.5 2.5 0 010 5z" fill="#BDBDBD"/><path d="M4.5 7C4.5 3.406 7.406.5 11 .5s6.5 2.906 6.5 6.5c0 1.94-1.04 4.32-2.366 6.541-1.312 2.2-2.85 4.163-3.748 5.25-.2.239-.562.239-.762 0-.902-1.086-2.444-3.049-3.757-5.25C5.54 11.32 4.5 8.941 4.5 7zm4.379 2.121A3 3 0 1013.12 4.88 3 3 0 008.88 9.12z" stroke="#000"/><path d="M4.5 7C4.5 3.406 7.406.5 11 .5s6.5 2.906 6.5 6.5c0 1.94-1.04 4.32-2.366 6.541-1.312 2.2-2.85 4.163-3.748 5.25-.2.239-.562.239-.762 0-.902-1.086-2.444-3.049-3.757-5.25C5.54 11.32 4.5 8.941 4.5 7zm4.379 2.121A3 3 0 1013.12 4.88 3 3 0 008.88 9.12z" stroke="url(#prefix__paint0_linear)"/></g><defs><linearGradient id="prefix__paint0_linear" x1="11" y1="0" x2="11" y2="19.47" gradientUnits="userSpaceOnUse"><stop stop-color="#fff"/><stop offset="1" stop-color="#fff" stop-opacity="0"/></linearGradient><filter id="prefix__filter0_dd" x="0" y="0" width="22" height="27.47" filterUnits="userSpaceOnUse" color-interpolation-filters="sRGB"><feFlood flood-opacity="0" result="BackgroundImageFix"/><feColorMatrix in="SourceAlpha" values="0 0 0 0 0 0 0 0 0 0 0 0 0 0 0 0 0 0 127 0"/><feOffset dy="4"/><feGaussianBlur stdDeviation="2"/><feColorMatrix values="0 0 0 0 0 0 0 0 0 0 0 0 0 0 0 0 0 0 0.25 0"/><feBlend in2="BackgroundImageFix" result="effect1_dropShadow"/><feColorMatrix in="SourceAlpha" values="0 0 0 0 0 0 0 0 0 0 0 0 0 0 0 0 0 0 127 0"/><feOffset dy="4"/><feGaussianBlur stdDeviation="2"/><feColorMatrix values="0 0 0 0 0 0 0 0 0 0 0 0 0 0 0 0 0 0 0.25 0"/><feBlend in2="effect1_dropShadow" result="effect2_dropShadow"/><feBlend in="SourceGraphic" in2="effect2_dropShadow" result="shape"/></filter></defs></svg>
